X: 100383
T: THE RANDY WIVES OF GREENLAW REEL
R: reel
B: K\"ohler's Violin Repository, v.3, 1885 p.253 #1
F: http://www.archive.org/details/klersviolinrepos03rugg
Z: 2012 John Chambers <jc:trillian.mit.edu>
N: The last note does have a dangling tie.
M: C|
L: 1/8
K: D
uc |\
d2AG F2Dc | d2fd (eB)Bc | d2AG F2DF | (GB)AG (FD)D :|
uc |\
d2df (ab)af | (ge)fd (eB)Bc | d2df (ab)af | (ge)(af) d/d/d (dA) |
d2df (ab)af | (ge)fd (eB)Bc | dfce BdAF | GBAF D/D/D "^Fine."D2- |]

%%sep 2 1 500

